Obsidian-SemiLight/actions/16s/align-horizontal-left.svg

<svg viewBox="0 0 16 16" xmlns="http://www.w3.org/2000/svg"><path d="m2 2v12h1v-12zm2 0v5h10v-5zm1 1h8v3h-8zm-1 6v5h5v-5zm1 1h3v3h-3z" fill="#4d4d4d"/></svg>

<svg xmlns="http://www.w3.org/2000/svg" viewBox="0 0 16 16">
  <defs id="defs3051">
    <style type="text/css" id="current-color-scheme">
      .ColorScheme-Text {
        color:#4d4d4d;
      }
      </style>
  </defs>
 <path style="fill:currentColor;fill-opacity:1;stroke:none" 
       d="M 2 2 L 2 14 L 3 14 L 3 2 L 2 2 z M 4 2 L 4 7 L 14 7 L 14 2 L 4 2 z M 5 3 L 13 3 L 13 6 L 5 6 L 5 3 z M 4 9 L 4 14 L 9 14 L 9 9 L 4 9 z M 5 10 L 8 10 L 8 13 L 5 13 L 5 10 z "
     class="ColorScheme-Text"
     />
</svg>
